X: 2148
T: Şedarabân Sazsemâîsi
C: Tanburî Cemil Bey
O: Turkey
F: http://compmusic.upf.edu/node/140
N: sedaraban--sazsemaisi--aksaksemai----tanburi_cemil_bey
N: makam= sedaraban
N: form= sazsemaisi
N: usul= aksaksemai = 10/8
M: 10/8
L: 1/16
K: C _7/8B _7/8e ^f ^c
Q: 1/4=132
%%MIDI tuningsystem comma53
d4 feef eddc Bcd4z2  | g4 g2f3/2e/ d=cb3/2a/ gaf2 g2z2  | 
w:  1. HANE  |   | 
f2g2 a2b3ag2 b2ag fef2  | g4 b2a2 g2f2 e2d4z2  | \
w:   |   | 
d4 f2e4d4e3/2d/ cdc2  | 
w:   | 
d2e2 g2f3efe edd4z2  | G4 d2d4de d=cc2 cdcB  | 
w:   |  TESLİM  | 
=c2d2 e2d2 c2B2 A2G4D2  | G3e dcd8-d2 cBAG  | \
w:   |   | 
FEDE FGAB cde3/2d/ ced4A_1/4B  | 
w:   | 
=c4 d2cB AGA2 _B2AG FED2  | F2G2 A2F3EFE EDD4z2  | 
w:   |   | 
g4 f2g3de2 f2g4z2  | g4 abag gffe def6  | \
w:  2. HANE  |   | 
f4 b2a3gf2 =c'ba3bag  | 
w:   | 
f4 efg3bag fed6  | agfg a2a3g=c'2 c'2c'b agfe  | 
w:   |   | 
d4 f2e4d4e3/2d/ cdc2  | d2e2 g2f3efe edd6  | \
w:   |   | 
G4 d2d4de d=cc2 cdcB  | 
w:  TESLİM  | 
=c2d2 e2d2 c2B2 A2G4D2  | G3e dcd8-d2 cBAG  | \
w:   |   | 
FEDE FGAB cde3/2d/ ced4A_1/4B  | 
w:   | 
=c4 d2cB AGA2 _B2AG FED2  | F2G2 A2F3EFE EDD4z2  | 
w:   |   | 
d4 =c'2_1/4b3c'a3_7/8bg4f2  | g2a2 b2ag gf=c'2 baa6  | \
w:  3. HANE  |   | 
a4 d'2d'3=c'ba g2a2 _1/4b2d'2  | 
w:   | 
=c'4 baa3gba gfg6  | =c'4 bag4a2 b2ag fef2  | 
w:   |   | 
g4 b2ab gafg efd6  | d4 f2e4d4e3/2d/ cdc2  | \
w:   |   | 
d2e2 g2f3efe edd6  | 
w:   | 
G4 d2d4de d=cc2 cdcB  | =c2d2 e2d2 c2B2 A2G4D2  | 
w:  TESLİM  |   | 
G3e dcd8-d2 cBAG  | FEDE FGAB cde3/2d/ ced4A_1/4B  | 
w:   |   | 
=c4 d2cB AGA2 _B2AG FED2  | F2G2 A2F3EFE EDD4z2  | 
w:   |   | 
z12  | d6g4f2  | a12  | d6e4f2  | d4c2B2A2G2  | \
w:  |  4. HANE  |   |   |   | 
d6g4a2  | b6b2a2g2  | f4d2e4f2  | 
w:   |   |   | 
d8-d2z2  | d6g4f2  | a12  | d6e4f2  | d4c2B2A2G2  | \
w:   |   |   |   |   | 
d6g4a2  | b6b2a2g2  | 
w:   |   | 
f4d2e4f2  | d8-d2z2  | d'4=c'2=b4g2  | a6d'4z2  | \
w:   |   |   |   | 
g6=b4a2  | a2=c'bagfg=efd2  | 
w:   |   | 
d'4=c'2=b4g2  | a6=e'6  | d'4=c'2=b4a2  | \
w:   |   |   | 
g8-g2z2  | d'4=c'2=b4g2  | a6d'4z2  | g6=b4a2  | 
w:   |   |   |   | 
a2=c'bagfg=efd2  | d'4=c'2=b4g2  | a6=e'6  | \
w:   |   |   | 
d'4=c'2=b4a2  | g8-g2z2  | 
w:   |   | 
gfgab=c'e'd'c'bag  | fefgabd'=c'bagf  | 
w:   |   | 
edefga=c'bagfe  | dcdefgabaga2  | 
w:   |   | 
gfgab=c'e'd'c'bag  | fefgabd'=c'bagf  | 
w:   |   | 
edefga=c'bagfe  | d2f2a2d4z2  | d6g4f2  | a12  | 
w:   |   |   |   | 
d6e4f2  | d8-d2z2  | d6e4a2  | b6b2a2g2  | \
w:   |   |   |   | 
b6c'6  | d'12  | z20  | G4 d2d4de d=cc2 cdcB  | 
w:   |   |  |  TESLİM  | 
=c2d2 e2d2 c2B2 A2G4D2  | G3e dcd8-d2 cBAG  | \
w:   |   | 
FEDE FGAB cde3/2d/ ced4A_1/4B  | 
w:   | 
=c4 d2cB AGA2 _B2AG FED2  | F2G2 A2F3EFE EDD4z2  | 
w:   |   | 
|


